X: 8
M: 6/8
L: 1/8
K: G
| "G"B/c/dB GDG | "G"B/c/dB GBG | "D7"A/B/cA DFG | "D7"ABc cBA \
| "G"B/c/dB GDG | "G"Bdg d2c | "G"B/c/dB "D7"cAF | "G"AGG G2 :|
|: B \
| "D7"AFD def | "G"gfe d2c | "G"BDB dcB | "D7"AGF FED \
| "D7"A/G/F/E/D def | "G"gdB b2c | "G"B/c/dB "D7"cAF | "G"AGG G2 :|
|: B \
| "D7"A3 AFD | "D7"dcB ABc | "G"B3 DGA | "G"B/c/dB dcB \
| "D7"A3 A/G/F/E/D | "G"GBd "C"g2c | "G"B/c/dB "D7"cAF | "G"AGG G2 :|
|: B \
| "D7"ADD dcA | "G"BDD dcB | "C"edc "G"dcB | "D7"cBc AFD \
| "D7"A/G/F/E/D "G"d/c/B/A/G | "G"g/a/b/a/g/e/ d2c | "G"B/c/dB "D7"cAF | "G"AGG G2 :|


